dist/icons/envelope.svg

<?xml version="1.0" encoding="utf-8"?>
<!-- Generated by IcoMoon.io -->
<!DOCTYPE svg PUBLIC "-//W3C//DTD SVG 1.1//EN" "http://www.w3.org/Graphics/SVG/1.1/DTD/svg11.dtd">
<svg version="1.1" xmlns="http://www.w3.org/2000/svg" xmlns:xlink="http://www.w3.org/1999/xlink" width="32" height="32" viewBox="0 0 32 32">
<path d="M29 4h-26c-1.657 0-3 1.343-3 3v18c0 1.656 1.343 3 3 3h26c1.657 0 3-1.344 3-3v-18c0-1.657-1.343-3-3-3zM2.741 25.99l-0.731-0.732 8.249-8.248 0.731 0.732-8.249 8.248zM29.259 25.99l-8.249-8.248 0.731-0.732 8.249 8.248-0.731 0.732zM17 19.325v0.675h-2v-0.675l-12.997-12.050 1.272-1.272 12.725 11.798 12.725-11.798 1.272 1.272-12.997 12.050z"></path>
</svg>

<svg xmlns="http://www.w3.org/2000/svg" width="32" height="32" viewBox="0 0 32 32"><path d="M29 4H3C1.343 4 0 5.343 0 7v18c0 1.656 1.343 3 3 3h26c1.657 0 3-1.344 3-3V7c0-1.657-1.343-3-3-3zM2.74 25.99l-.73-.732 8.25-8.248.73.732-8.25 8.248zm26.52 0l-8.25-8.248.73-.732 8.25 8.248-.73.732zM17 19.325V20h-2v-.675L2.003 7.275l1.272-1.272L16 17.8 28.725 6.004l1.272 1.272L17 19.325z"/></svg>
